!!!COM: Robert Schumann
!!!CNT: Deutscher
!!!TXO: Deutsche 
!!!OTL: Ich grolle nicht
!!!OPR: Dichterliebe
!!!OPS: Opus 48
!!!ONM: No. 7
!!!LYR: Heine
!!!ENC: Brian Bice
!!!YOR: Sa2mtliche Lieder, vol. 1, C.F. Peters
!!!ODT: 1840/
!!NB: Vocal melody and text only encoded.
**kern	**silbe
*clefG2	*
*k[]	*
*M4/4	*
=1	=1
2r	.
8r	.
{8e	{Ich
8.d	grol-
16c	-le
=2	=2
2f}	nicht,}
8r	.
{8f	{und
8f	wenn
8f	das
=3	=3
[2.a-	Herz
8a-]	|
8g	auch
=4	=4
2e}	bricht,}
2r	.
=5	=5
{4e	{e-
8e	-wig
8e	ver-
4.b	-lor'-
8a	-nes
=6	=6
2a}	Lieb,}
2r	.
=7	=7
{4a	{e-
8a	-wig
8a	ver-
4.ee	-lor'-
8dd	-nes
=8	=8
[2dd	Lieb!
4.dd]}	|}
{8dd	{ich
=9	=9
[2dd	grol-
4.dd]	|
8cc	-le
=10	=10
2b}	nicht,}
4r	.
8r	.
{8g	{ich
=11	=11
[2g	grol-
4.g]	|
8f	-le
=12	=12
2e}	nicht.}
8r	.
{8e	{Wie
8e	du
8e	auch
=13	=13
2a}	strahlst}
8r	.
{8e	{in
8.e	Di-
16e	-a-
=14	=14
8.a	-man-
16e	-ten-
4e}	-pracht,}
8r	.
{8f#	{es
8f#	fa2llt
8f#	kein
=15	=15
2b}	Strahl}
8r	.
{8f#	{in
8f#	dei-
8f#	-nes
=16	=16
8.b	Her-
16f#	-zens
4f#}	Nacht,}
8r	.
{8g	{das
8g	weiss
8g	ich
=17	=17
[1g	la2ngst.
=18	=18
2g]}	|}
2r	.
=19	=19
2r	.
8r	.
{8e	{Ich
8.d	grol-
16c	-le
=20	=20
2f}	nicht,}
8r	.
{8f	{und
8f	wenn
8f	das
=21	=21
[2.a-	Herz
8a-]	|
8g	auch
=22	=22
2e}	bricht.}
4r	.
8r	.
{8e	{Ich
=23	=23
4.e	sah
8e	dich
4.b	ja
8b	im
=24	=24
4a	Trau-
4a}	-me,}
8r	.
{8a	{und
8a	sah
8a	die
=25	=25
8a	Nacht
8a	in
8a	dei-
8a	-nes
4.ee	Her-
8ee	-zens
=26	=26
4dd	Rau-
4dd}	-me,}
8r	.
{8dd	{und
8dd	sah
8dd	die
=27	=27
8dd	Schlang',
8dd	die
8dd	dir
8dd	am
4.dd	Her-
8dd	-zen
=28	=28
(2dd	frisst,
8cc#)}	|}
{8cc#	{ich
8cc#	sah,
8cc#	mein
=29	=29
8ccn	Lieb,
8ccn	wie
8ccn	sehr
8ccn	du
4.b	e-
8b	-lend
=30	=30
4cc}	bist.}
4r	.
8r	.
{8b	{Ich
8b	grol-
8b	-le
=31	=31
2a}	nicht,}
8r	.
{8g	{ich
8g	grol-
8g	-le
=32	=32
[1c	nicht.
=33	=33
2c]}	|}
2r	.
*-	*-
